P3
# DocuListo favicon 64x64
64 64
255
20 22 26 20 22 26 20 22 26 20 22 26 20 22 26 20 22 26 20 22 26 20 22 26 20 22 26 20 22 26 20 22 26 20 22 26 20 22 26 20 22 26 20 22 26 20 22 26 20 22 26 20 22 26 20 22 26 20 22 26 20 22 26 20 22 26 20 22 26 20 22 26 20 22 26 20 22 26 20 22 26 20 22 26 20 22 26 20 22 26 20 22 26 20 22 26 20 22 26 20 22 26 20 22 26 20 22 26 20 22 26 20 22 26 20 22 26 20 22 26 20 22 26 20 22 26 20 22 26 20 22 26 20 22 26 20 22 26 20 22 26 20 22 26 20 22 26 20 22 26 20 22 26 20 22 26 20 22 26 20 22 26 20 22 26 20 22 26 20 22 26 20 22 26 20 22 26 20 22 26 20 22 26 20 22 26 20 22 26 20 22 26
20 22 26 20 22 26 20 22 26 20 22 26 20 22 26 20 22 26 20 22 26 20 22 26 20 22 26 20 22 26 20 22 26 20 22 26 20 22 26 20 22 26 20 22 26 20 22 26 20 22 26 20 22 26 20 22 26 20 22 26 20 22 26 20 22 26 20 22 26 20 22 26 20 22 26 20 22 26 20 22 26 20 22 26 20 22 26 20 22 26 20 22 26 20 22 26 20 22 26 20 22 26 20 22 26 20 22 26 20 22 26 20 22 26 20 22 26 20 22 26 20 22 26 20 22 26 20 22 26 20 22 26 20 22 26 20 22 26 20 22 26 20 22 26 20 22 26 20 22 26 20 22 26 20 22 26 20 22 26 20 22 26 20 22 26 20 22 26 20 22 26 20 22 26 20 22 26 20 22 26 20 22 26 20 22 26 20 22 26 20 22 26
20 22 26 20 22 26 20 22 26 20 22 26 20 22 26 20 22 26 20 22 26 20 22 26 20 22 26 20 22 26 20 22 26 20 22 26 20 22 26 20 22 26 20 22 26 20 22 26 20 22 26 20 22 26 20 22 26 20 22 26 20 22 26 20 22 26 20 22 26 20 22 26 20 22 26 20 22 26 20 22 26 20 22 26 20 22 26 20 22 26 20 22 26 20 22 26 20 22 26 20 22 26 20 22 26 20 22 26 20 22 26 20 22 26 20 22 26 20 22 26 20 22 26 20 22 26 20 22 26 20 22 26 20 22 26 20 22 26 20 22 26 20 22 26 20 22 26 20 22 26 20 22 26 20 22 26 20 22 26 20 22 26 20 22 26 20 22 26 20 22 26 20 22 26 20 22 26 20 22 26 20 22 26 20 22 26 20 22 26 20 22 26
20 22 26 20 22 26 20 22 26 20 22 26 20 22 26 20 22 26 20 22 26 20 22 26 20 22 26 20 22 26 20 22 26 20 22 26 20 22 26 20 22 26 20 22 26 20 22 26 20 22 26 20 22 26 20 22 26 20 22 26 20 22 26 20 22 26 20 22 26 20 22 26 20 22 26 20 22 26 20 22 26 20 22 26 20 22 26 20 22 26 20 22 26 20 22 26 20 22 26 20 22 26 20 22 26 20 22 26 20 22 26 20 22 26 20 22 26 20 22 26 20 22 26 20 22 26 20 22 26 20 22 26 20 22 26 20 22 26 20 22 26 20 22 26 20 22 26 20 22 26 20 22 26 20 22 26 20 22 26 20 22 26 20 22 26 20 22 26 20 22 26 20 22 26 20 22 26 20 22 26 20 22 26 20 22 26 20 22 26 20 22 26
20 22 26 20 22 26 20 22 26 20 22 26 20 22 26 20 22 26 20 22 26 20 22 26 20 22 26 20 22 26 20 22 26 20 22 26 20 22 26 20 22 26 20 22 26 20 22 26 20 22 26 20 22 26 20 22 26 20 22 26 20 22 26 20 22 26 20 22 26 20 22 26 20 22 26 20 22 26 20 22 26 20 22 26 20 22 26 20 22 26 20 22 26 20 22 26 20 22 26 20 22 26 20 22 26 20 22 26 20 22 26 20 22 26 20 22 26 20 22 26 20 22 26 20 22 26 20 22 26 20 22 26 20 22 26 20 22 26 20 22 26 20 22 26 20 22 26 20 22 26 20 22 26 20 22 26 20 22 26 20 22 26 20 22 26 20 22 26 20 22 26 20 22 26 20 22 26 20 22 26 20 22 26 20 22 26 20 22 26 20 22 26
20 22 26 20 22 26 20 22 26 20 22 26 20 22 26 20 22 26 20 22 26 20 22 26 20 22 26 20 22 26 20 22 26 20 22 26 20 22 26 20 22 26 20 22 26 20 22 26 20 22 26 20 22 26 20 22 26 20 22 26 20 22 26 20 22 26 20 22 26 20 22 26 20 22 26 20 22 26 20 22 26 20 22 26 20 22 26 20 22 26 20 22 26 20 22 26 20 22 26 20 22 26 20 22 26 20 22 26 20 22 26 20 22 26 20 22 26 20 22 26 20 22 26 20 22 26 20 22 26 20 22 26 20 22 26 20 22 26 20 22 26 20 22 26 20 22 26 20 22 26 20 22 26 20 22 26 20 22 26 20 22 26 20 22 26 20 22 26 20 22 26 20 22 26 20 22 26 20 22 26 20 22 26 20 22 26 20 22 26 20 22 26
20 22 26 20 22 26 20 22 26 20 22 26 20 22 26 20 22 26 20 22 26 20 22 26 20 22 26 20 22 26 20 22 26 20 22 26 20 22 26 20 22 26 20 22 26 20 22 26 20 22 26 20 22 26 20 22 26 20 22 26 20 22 26 20 22 26 20 22 26 20 22 26 20 22 26 20 22 26 20 22 26 20 22 26 20 22 26 20 22 26 20 22 26 20 22 26 20 22 26 20 22 26 20 22 26 20 22 26 20 22 26 20 22 26 20 22 26 20 22 26 20 22 26 20 22 26 20 22 26 20 22 26 20 22 26 20 22 26 20 22 26 20 22 26 20 22 26 20 22 26 20 22 26 20 22 26 20 22 26 20 22 26 20 22 26 20 22 26 20 22 26 20 22 26 20 22 26 20 22 26 20 22 26 20 22 26 20 22 26 20 22 26
20 22 26 20 22 26 20 22 26 20 22 26 20 22 26 20 22 26 20 22 26 20 22 26 20 22 26 20 22 26 20 22 26 20 22 26 20 22 26 20 22 26 20 22 26 20 22 26 20 22 26 20 22 26 20 22 26 20 22 26 20 22 26 20 22 26 20 22 26 20 22 26 20 22 26 20 22 26 20 22 26 20 22 26 20 22 26 20 22 26 20 22 26 20 22 26 20 22 26 20 22 26 20 22 26 20 22 26 20 22 26 20 22 26 20 22 26 20 22 26 20 22 26 20 22 26 20 22 26 20 22 26 20 22 26 20 22 26 20 22 26 20 22 26 20 22 26 20 22 26 20 22 26 20 22 26 20 22 26 20 22 26 20 22 26 20 22 26 20 22 26 20 22 26 20 22 26 20 22 26 20 22 26 20 22 26 20 22 26 20 22 26
20 22 26 20 22 26 20 22 26 20 22 26 20 22 26 20 22 26 20 22 26 20 22 26 20 22 26 20 22 26 20 22 26 20 22 26 20 22 26 20 22 26 20 22 26 20 22 26 20 22 26 20 22 26 20 22 26 20 22 26 20 22 26 20 22 26 20 22 26 20 22 26 20 22 26 20 22 26 20 22 26 20 22 26 20 22 26 20 22 26 20 22 26 20 22 26 20 22 26 20 22 26 20 22 26 20 22 26 20 22 26 20 22 26 20 22 26 20 22 26 20 22 26 20 22 26 20 22 26 20 22 26 20 22 26 20 22 26 20 22 26 20 22 26 20 22 26 20 22 26 20 22 26 20 22 26 20 22 26 20 22 26 20 22 26 20 22 26 20 22 26 20 22 26 20 22 26 20 22 26 20 22 26 20 22 26 20 22 26 20 22 26
20 22 26 20 22 26 20 22 26 20 22 26 20 22 26 20 22 26 20 22 26 20 22 26 20 22 26 20 22 26 20 22 26 20 22 26 20 22 26 20 22 26 20 22 26 20 22 26 20 22 26 20 22 26 20 22 26 20 22 26 20 22 26 20 22 26 20 22 26 20 22 26 20 22 26 20 22 26 20 22 26 20 22 26 20 22 26 20 22 26 20 22 26 20 22 26 20 22 26 20 22 26 20 22 26 20 22 26 20 22 26 20 22 26 20 22 26 20 22 26 20 22 26 20 22 26 20 22 26 20 22 26 20 22 26 20 22 26 20 22 26 20 22 26 20 22 26 20 22 26 20 22 26 20 22 26 20 22 26 20 22 26 20 22 26 20 22 26 20 22 26 20 22 26 20 22 26 20 22 26 20 22 26 20 22 26 20 22 26 20 22 26
20 22 26 20 22 26 20 22 26 20 22 26 20 22 26 20 22 26 20 22 26 20 22 26 20 22 26 20 22 26 20 22 26 20 22 26 20 22 26 20 22 26 20 22 26 20 22 26 20 22 26 20 22 26 20 22 26 20 22 26 20 22 26 20 22 26 20 22 26 20 22 26 20 22 26 20 22 26 20 22 26 20 22 26 20 22 26 20 22 26 20 22 26 20 22 26 20 22 26 20 22 26 20 22 26 20 22 26 20 22 26 20 22 26 20 22 26 20 22 26 20 22 26 20 22 26 20 22 26 20 22 26 20 22 26 20 22 26 20 22 26 20 22 26 20 22 26 20 22 26 20 22 26 20 22 26 20 22 26 20 22 26 20 22 26 20 22 26 20 22 26 20 22 26 20 22 26 20 22 26 20 22 26 20 22 26 20 22 26 20 22 26
20 22 26 20 22 26 20 22 26 20 22 26 20 22 26 20 22 26 20 22 26 20 22 26 20 22 26 20 22 26 20 22 26 20 22 26 20 22 26 20 22 26 20 22 26 20 22 26 20 22 26 20 22 26 20 22 26 20 22 26 20 22 26 20 22 26 20 22 26 20 22 26 20 22 26 20 22 26 20 22 26 20 22 26 20 22 26 20 22 26 20 22 26 20 22 26 20 22 26 20 22 26 20 22 26 20 22 26 20 22 26 20 22 26 20 22 26 20 22 26 20 22 26 20 22 26 20 22 26 20 22 26 20 22 26 20 22 26 20 22 26 20 22 26 20 22 26 20 22 26 20 22 26 20 22 26 20 22 26 20 22 26 20 22 26 20 22 26 20 22 26 20 22 26 20 22 26 20 22 26 20 22 26 20 22 26 20 22 26 20 22 26
20 22 26 20 22 26 20 22 26 20 22 26 20 22 26 20 22 26 20 22 26 20 22 26 20 22 26 20 22 26 20 22 26 20 22 26 20 22 26 20 22 26 20 22 26 20 22 26 20 22 26 20 22 26 20 22 26 20 22 26 20 22 26 20 22 26 20 22 26 20 22 26 20 22 26 20 22 26 20 22 26 20 22 26 20 22 26 20 22 26 20 22 26 20 22 26 20 22 26 20 22 26 20 22 26 20 22 26 20 22 26 20 22 26 20 22 26 20 22 26 20 22 26 20 22 26 20 22 26 20 22 26 20 22 26 20 22 26 20 22 26 20 22 26 20 22 26 20 22 26 20 22 26 20 22 26 20 22 26 20 22 26 20 22 26 20 22 26 20 22 26 20 22 26 20 22 26 20 22 26 20 22 26 20 22 26 20 22 26 20 22 26
20 22 26 20 22 26 20 22 26 20 22 26 20 22 26 20 22 26 20 22 26 20 22 26 20 22 26 20 22 26 20 22 26 20 22 26 20 22 26 20 22 26 20 22 26 20 22 26 20 22 26 20 22 26 20 22 26 20 22 26 255 255 255 255 255 255 255 255 255 255 255 255 255 255 255 255 255 255 255 255 255 255 255 255 255 255 255 255 255 255 255 255 255 255 255 255 255 255 255 255 255 255 255 255 255 255 255 255 255 255 255 255 255 255 255 255 255 255 255 255 255 255 255 255 255 255 255 255 255 255 255 255 255 255 255 20 22 26 20 22 26 20 22 26 20 22 26 235 235 240 20 22 26 20 22 26 20 22 26 20 22 26 20 22 26 20 22 26 20 22 26 20 22 26 20 22 26 20 22 26 20 22 26 20 22 26 20 22 26 20 22 26
20 22 26 20 22 26 20 22 26 20 22 26 20 22 26 20 22 26 20 22 26 20 22 26 20 22 26 20 22 26 20 22 26 20 22 26 20 22 26 20 22 26 20 22 26 20 22 26 20 22 26 255 255 255 255 255 255 255 255 255 255 255 255 255 255 255 255 255 255 255 255 255 255 255 255 255 255 255 255 255 255 255 255 255 255 255 255 255 255 255 255 255 255 255 255 255 255 255 255 255 255 255 255 255 255 255 255 255 255 255 255 255 255 255 255 255 255 255 255 255 255 255 255 255 255 255 255 255 255 255 255 255 255 255 255 255 255 255 255 255 255 255 255 255 235 235 240 235 235 240 20 22 26 20 22 26 20 22 26 20 22 26 20 22 26 20 22 26 20 22 26 20 22 26 20 22 26 20 22 26 20 22 26 20 22 26 20 22 26 20 22 26
20 22 26 20 22 26 20 22 26 20 22 26 20 22 26 20 22 26 20 22 26 20 22 26 20 22 26 20 22 26 20 22 26 20 22 26 20 22 26 20 22 26 20 22 26 20 22 26 255 255 255 255 255 255 255 255 255 255 255 255 255 255 255 255 255 255 255 255 255 255 255 255 255 255 255 255 255 255 255 255 255 255 255 255 255 255 255 255 255 255 255 255 255 255 255 255 255 255 255 255 255 255 255 255 255 255 255 255 255 255 255 255 255 255 255 255 255 255 255 255 255 255 255 255 255 255 255 255 255 255 255 255 255 255 255 255 255 255 255 255 255 235 235 240 235 235 240 235 235 240 20 22 26 20 22 26 20 22 26 20 22 26 20 22 26 20 22 26 20 22 26 20 22 26 20 22 26 20 22 26 20 22 26 20 22 26 20 22 26 20 22 26
20 22 26 20 22 26 20 22 26 20 22 26 20 22 26 20 22 26 20 22 26 20 22 26 20 22 26 20 22 26 20 22 26 20 22 26 20 22 26 20 22 26 20 22 26 20 22 26 255 255 255 255 255 255 255 255 255 255 255 255 255 255 255 255 255 255 255 255 255 255 255 255 255 255 255 255 255 255 255 255 255 255 255 255 255 255 255 255 255 255 255 255 255 255 255 255 255 255 255 255 255 255 255 255 255 255 255 255 255 255 255 255 255 255 255 255 255 255 255 255 255 255 255 255 255 255 255 255 255 255 255 255 255 255 255 255 255 255 235 235 240 235 235 240 235 235 240 235 235 240 20 22 26 20 22 26 20 22 26 20 22 26 20 22 26 20 22 26 20 22 26 20 22 26 20 22 26 20 22 26 20 22 26 20 22 26 20 22 26 20 22 26
20 22 26 20 22 26 20 22 26 20 22 26 20 22 26 20 22 26 20 22 26 20 22 26 20 22 26 20 22 26 20 22 26 20 22 26 20 22 26 20 22 26 20 22 26 20 22 26 255 255 255 255 255 255 255 255 255 255 255 255 255 255 255 255 255 255 255 255 255 255 255 255 255 255 255 255 255 255 255 255 255 255 255 255 255 255 255 255 255 255 255 255 255 255 255 255 255 255 255 255 255 255 255 255 255 255 255 255 255 255 255 255 255 255 255 255 255 255 255 255 255 255 255 255 255 255 255 255 255 255 255 255 255 255 255 235 235 240 235 235 240 235 235 240 235 235 240 235 235 240 20 22 26 20 22 26 20 22 26 20 22 26 20 22 26 20 22 26 20 22 26 20 22 26 20 22 26 20 22 26 20 22 26 20 22 26 20 22 26 20 22 26
20 22 26 20 22 26 20 22 26 20 22 26 20 22 26 20 22 26 20 22 26 20 22 26 20 22 26 20 22 26 20 22 26 20 22 26 20 22 26 20 22 26 20 22 26 255 255 255 255 255 255 255 255 255 255 255 255 255 255 255 255 255 255 255 255 255 255 255 255 255 255 255 255 255 255 255 255 255 255 255 255 255 255 255 255 255 255 255 255 255 255 255 255 255 255 255 255 255 255 255 255 255 255 255 255 255 255 255 255 255 255 255 255 255 255 255 255 255 255 255 255 255 255 255 255 255 255 255 255 255 255 255 235 235 240 235 235 240 235 235 240 235 235 240 235 235 240 235 235 240 20 22 26 20 22 26 20 22 26 20 22 26 20 22 26 20 22 26 20 22 26 20 22 26 20 22 26 20 22 26 20 22 26 20 22 26 20 22 26 20 22 26
20 22 26 20 22 26 20 22 26 20 22 26 20 22 26 20 22 26 20 22 26 20 22 26 20 22 26 20 22 26 20 22 26 20 22 26 20 22 26 20 22 26 20 22 26 255 255 255 255 255 255 255 255 255 255 255 255 255 255 255 255 255 255 255 255 255 255 255 255 255 255 255 255 255 255 255 255 255 255 255 255 255 255 255 255 255 255 255 255 255 255 255 255 255 255 255 255 255 255 255 255 255 255 255 255 255 255 255 255 255 255 255 255 255 255 255 255 255 255 255 255 255 255 255 255 255 255 255 255 235 235 240 235 235 240 235 235 240 235 235 240 235 235 240 235 235 240 235 235 240 20 22 26 20 22 26 20 22 26 20 22 26 20 22 26 20 22 26 20 22 26 20 22 26 20 22 26 20 22 26 20 22 26 20 22 26 20 22 26 20 22 26
20 22 26 20 22 26 20 22 26 20 22 26 20 22 26 20 22 26 20 22 26 20 22 26 20 22 26 20 22 26 20 22 26 20 22 26 20 22 26 20 22 26 20 22 26 255 255 255 255 255 255 255 255 255 255 255 255 255 255 255 255 255 255 255 255 255 255 255 255 255 255 255 255 255 255 255 255 255 255 255 255 255 255 255 255 255 255 255 255 255 255 255 255 255 255 255 255 255 255 255 255 255 255 255 255 255 255 255 255 255 255 255 255 255 255 255 255 255 255 255 255 255 255 255 255 255 235 235 240 235 235 240 235 235 240 235 235 240 235 235 240 235 235 240 235 235 240 235 235 240 20 22 26 20 22 26 20 22 26 20 22 26 20 22 26 20 22 26 20 22 26 20 22 26 20 22 26 20 22 26 20 22 26 20 22 26 20 22 26 20 22 26
20 22 26 20 22 26 20 22 26 20 22 26 20 22 26 20 22 26 20 22 26 20 22 26 20 22 26 20 22 26 20 22 26 20 22 26 20 22 26 20 22 26 20 22 26 255 255 255 255 255 255 255 255 255 255 255 255 255 255 255 255 255 255 255 255 255 255 255 255 255 255 255 255 255 255 255 255 255 255 255 255 255 255 255 255 255 255 255 255 255 255 255 255 255 255 255 255 255 255 255 255 255 255 255 255 255 255 255 255 255 255 255 255 255 255 255 255 255 255 255 255 255 255 235 235 240 235 235 240 235 235 240 235 235 240 235 235 240 235 235 240 235 235 240 235 235 240 235 235 240 20 22 26 20 22 26 20 22 26 20 22 26 20 22 26 20 22 26 20 22 26 20 22 26 20 22 26 20 22 26 20 22 26 20 22 26 20 22 26 20 22 26
20 22 26 20 22 26 20 22 26 20 22 26 20 22 26 20 22 26 20 22 26 20 22 26 20 22 26 20 22 26 20 22 26 20 22 26 20 22 26 20 22 26 20 22 26 255 255 255 255 255 255 255 255 255 255 255 255 255 255 255 255 255 255 255 255 255 255 255 255 255 255 255 255 255 255 255 255 255 255 255 255 255 255 255 255 255 255 255 255 255 255 255 255 255 255 255 255 255 255 255 255 255 255 255 255 255 255 255 255 255 255 255 255 255 255 255 255 255 255 255 235 235 240 235 235 240 235 235 240 235 235 240 235 235 240 235 235 240 235 235 240 235 235 240 235 235 240 235 235 240 20 22 26 20 22 26 20 22 26 20 22 26 20 22 26 20 22 26 20 22 26 20 22 26 20 22 26 20 22 26 20 22 26 20 22 26 20 22 26 20 22 26
20 22 26 20 22 26 20 22 26 20 22 26 20 22 26 20 22 26 20 22 26 20 22 26 20 22 26 20 22 26 20 22 26 20 22 26 20 22 26 20 22 26 20 22 26 255 255 255 255 255 255 255 255 255 255 255 255 255 255 255 255 255 255 255 255 255 255 255 255 255 255 255 255 255 255 255 255 255 255 255 255 255 255 255 255 255 255 255 255 255 255 255 255 255 255 255 255 255 255 255 255 255 255 255 255 255 255 255 255 255 255 255 255 255 255 255 255 255 255 255 255 255 255 255 255 255 255 255 255 255 255 255 255 255 255 255 255 255 255 255 255 255 255 255 255 255 255 255 255 255 20 22 26 20 22 26 20 22 26 20 22 26 20 22 26 20 22 26 20 22 26 20 22 26 20 22 26 20 22 26 20 22 26 20 22 26 20 22 26 20 22 26
20 22 26 20 22 26 20 22 26 20 22 26 20 22 26 20 22 26 20 22 26 20 22 26 20 22 26 20 22 26 20 22 26 20 22 26 20 22 26 20 22 26 20 22 26 255 255 255 255 255 255 255 255 255 255 255 255 255 255 255 255 255 255 255 255 255 255 255 255 255 255 255 255 255 255 255 255 255 255 255 255 255 255 255 255 255 255 255 255 255 255 255 255 255 255 255 255 255 255 255 255 255 255 255 255 255 255 255 255 255 255 255 255 255 255 255 255 255 255 255 255 255 255 255 255 255 255 255 255 255 255 255 255 255 255 255 255 255 255 255 255 255 255 255 255 255 255 255 255 255 20 22 26 20 22 26 20 22 26 20 22 26 20 22 26 20 22 26 20 22 26 20 22 26 20 22 26 20 22 26 20 22 26 20 22 26 20 22 26 20 22 26
20 22 26 20 22 26 20 22 26 20 22 26 20 22 26 20 22 26 20 22 26 20 22 26 20 22 26 20 22 26 20 22 26 20 22 26 20 22 26 20 22 26 20 22 26 255 255 255 255 255 255 255 255 255 255 255 255 255 255 255 255 255 255 255 255 255 255 255 255 255 255 255 255 255 255 255 255 255 255 255 255 255 255 255 255 255 255 255 255 255 255 255 255 255 255 255 255 255 255 255 255 255 255 255 255 255 255 255 255 255 255 255 255 255 255 255 255 255 255 255 255 255 255 255 255 255 255 255 255 255 255 255 255 255 255 255 255 255 255 255 255 255 255 255 255 255 255 255 255 255 20 22 26 20 22 26 20 22 26 20 22 26 20 22 26 20 22 26 20 22 26 20 22 26 20 22 26 20 22 26 20 22 26 20 22 26 20 22 26 20 22 26
20 22 26 20 22 26 20 22 26 20 22 26 20 22 26 20 22 26 20 22 26 20 22 26 20 22 26 20 22 26 20 22 26 20 22 26 20 22 26 20 22 26 20 22 26 255 255 255 255 255 255 255 255 255 255 255 255 255 255 255 255 255 255 255 255 255 255 255 255 255 255 255 255 255 255 255 255 255 255 255 255 255 255 255 255 255 255 255 255 255 255 255 255 255 255 255 255 255 255 255 255 255 255 255 255 255 255 255 255 255 255 255 255 255 255 255 255 255 255 255 255 255 255 255 255 255 255 255 255 255 255 255 255 255 255 255 255 255 255 255 255 255 255 255 255 255 255 255 255 255 20 22 26 20 22 26 20 22 26 20 22 26 20 22 26 20 22 26 20 22 26 20 22 26 20 22 26 20 22 26 20 22 26 20 22 26 20 22 26 20 22 26
20 22 26 20 22 26 20 22 26 20 22 26 20 22 26 20 22 26 20 22 26 20 22 26 20 22 26 20 22 26 20 22 26 20 22 26 20 22 26 20 22 26 20 22 26 255 255 255 255 255 255 255 255 255 255 255 255 255 255 255 255 255 255 255 255 255 255 255 255 99 91 255 99 91 255 99 91 255 99 91 255 99 91 255 99 91 255 99 91 255 99 91 255 99 91 255 99 91 255 99 91 255 99 91 255 99 91 255 99 91 255 99 91 255 99 91 255 99 91 255 99 91 255 99 91 255 255 255 255 255 255 255 255 255 255 255 255 255 255 255 255 255 255 255 255 255 255 255 255 255 20 22 26 20 22 26 20 22 26 20 22 26 20 22 26 20 22 26 20 22 26 20 22 26 20 22 26 20 22 26 20 22 26 20 22 26 20 22 26 20 22 26
20 22 26 20 22 26 20 22 26 20 22 26 20 22 26 20 22 26 20 22 26 20 22 26 20 22 26 20 22 26 20 22 26 20 22 26 20 22 26 20 22 26 20 22 26 255 255 255 255 255 255 255 255 255 255 255 255 255 255 255 255 255 255 255 255 255 255 255 255 99 91 255 99 91 255 99 91 255 99 91 255 99 91 255 99 91 255 99 91 255 99 91 255 99 91 255 99 91 255 99 91 255 99 91 255 99 91 255 99 91 255 99 91 255 99 91 255 99 91 255 99 91 255 99 91 255 255 255 255 255 255 255 255 255 255 255 255 255 255 255 255 255 255 255 255 255 255 255 255 255 20 22 26 20 22 26 20 22 26 20 22 26 20 22 26 20 22 26 20 22 26 20 22 26 20 22 26 20 22 26 20 22 26 20 22 26 20 22 26 20 22 26
20 22 26 20 22 26 20 22 26 20 22 26 20 22 26 20 22 26 20 22 26 20 22 26 20 22 26 20 22 26 20 22 26 20 22 26 20 22 26 20 22 26 20 22 26 255 255 255 255 255 255 255 255 255 255 255 255 255 255 255 255 255 255 255 255 255 255 255 255 99 91 255 99 91 255 99 91 255 99 91 255 99 91 255 99 91 255 99 91 255 99 91 255 99 91 255 99 91 255 99 91 255 99 91 255 99 91 255 99 91 255 99 91 255 99 91 255 99 91 255 99 91 255 99 91 255 255 255 255 255 255 255 255 255 255 255 255 255 255 255 255 255 255 255 255 255 255 255 255 255 20 22 26 20 22 26 20 22 26 20 22 26 20 22 26 20 22 26 20 22 26 20 22 26 20 22 26 20 22 26 20 22 26 20 22 26 20 22 26 20 22 26
20 22 26 20 22 26 20 22 26 20 22 26 20 22 26 20 22 26 20 22 26 20 22 26 20 22 26 20 22 26 20 22 26 20 22 26 20 22 26 20 22 26 20 22 26 255 255 255 255 255 255 255 255 255 255 255 255 255 255 255 255 255 255 255 255 255 255 255 255 255 255 255 255 255 255 255 255 255 255 255 255 255 255 255 255 255 255 255 255 255 255 255 255 255 255 255 255 255 255 255 255 255 255 255 255 255 255 255 255 255 255 255 255 255 255 255 255 255 255 255 255 255 255 255 255 255 255 255 255 255 255 255 255 255 255 255 255 255 255 255 255 255 255 255 255 255 255 255 255 255 20 22 26 20 22 26 20 22 26 20 22 26 20 22 26 20 22 26 20 22 26 20 22 26 20 22 26 20 22 26 20 22 26 20 22 26 20 22 26 20 22 26
20 22 26 20 22 26 20 22 26 20 22 26 20 22 26 20 22 26 20 22 26 20 22 26 20 22 26 20 22 26 20 22 26 20 22 26 20 22 26 20 22 26 20 22 26 255 255 255 255 255 255 255 255 255 255 255 255 255 255 255 255 255 255 255 255 255 255 255 255 255 255 255 255 255 255 255 255 255 255 255 255 255 255 255 255 255 255 255 255 255 255 255 255 255 255 255 255 255 255 255 255 255 255 255 255 255 255 255 255 255 255 255 255 255 255 255 255 255 255 255 255 255 255 255 255 255 255 255 255 255 255 255 255 255 255 255 255 255 255 255 255 255 255 255 255 255 255 255 255 255 20 22 26 20 22 26 20 22 26 20 22 26 20 22 26 20 22 26 20 22 26 20 22 26 20 22 26 20 22 26 20 22 26 20 22 26 20 22 26 20 22 26
20 22 26 20 22 26 20 22 26 20 22 26 20 22 26 20 22 26 20 22 26 20 22 26 20 22 26 20 22 26 20 22 26 20 22 26 20 22 26 20 22 26 20 22 26 255 255 255 255 255 255 255 255 255 255 255 255 255 255 255 255 255 255 255 255 255 255 255 255 255 255 255 255 255 255 255 255 255 255 255 255 255 255 255 255 255 255 255 255 255 255 255 255 255 255 255 255 255 255 255 255 255 255 255 255 255 255 255 255 255 255 255 255 255 255 255 255 255 255 255 255 255 255 255 255 255 255 255 255 255 255 255 255 255 255 255 255 255 255 255 255 255 255 255 255 255 255 255 255 255 20 22 26 20 22 26 20 22 26 20 22 26 20 22 26 20 22 26 20 22 26 20 22 26 20 22 26 20 22 26 20 22 26 20 22 26 20 22 26 20 22 26
20 22 26 20 22 26 20 22 26 20 22 26 20 22 26 20 22 26 20 22 26 20 22 26 20 22 26 20 22 26 20 22 26 20 22 26 20 22 26 20 22 26 20 22 26 255 255 255 255 255 255 255 255 255 255 255 255 255 255 255 255 255 255 255 255 255 255 255 255 255 255 255 255 255 255 255 255 255 255 255 255 255 255 255 255 255 255 255 255 255 255 255 255 255 255 255 255 255 255 255 255 255 255 255 255 255 255 255 255 255 255 255 255 255 255 255 255 255 255 255 255 255 255 255 255 255 255 255 255 255 255 255 255 255 255 255 255 255 255 255 255 255 255 255 255 255 255 255 255 255 20 22 26 20 22 26 20 22 26 20 22 26 20 22 26 20 22 26 20 22 26 20 22 26 20 22 26 20 22 26 20 22 26 20 22 26 20 22 26 20 22 26
20 22 26 20 22 26 20 22 26 20 22 26 20 22 26 20 22 26 20 22 26 20 22 26 20 22 26 20 22 26 20 22 26 20 22 26 20 22 26 20 22 26 20 22 26 255 255 255 255 255 255 255 255 255 255 255 255 255 255 255 255 255 255 255 255 255 255 255 255 99 91 255 99 91 255 99 91 255 99 91 255 99 91 255 99 91 255 99 91 255 99 91 255 99 91 255 99 91 255 99 91 255 99 91 255 99 91 255 99 91 255 99 91 255 255 255 255 255 255 255 255 255 255 255 255 255 255 255 255 255 255 255 255 255 255 255 255 255 255 255 255 255 255 255 255 255 255 255 255 255 20 22 26 20 22 26 20 22 26 20 22 26 20 22 26 20 22 26 20 22 26 20 22 26 20 22 26 20 22 26 20 22 26 20 22 26 20 22 26 20 22 26
20 22 26 20 22 26 20 22 26 20 22 26 20 22 26 20 22 26 20 22 26 20 22 26 20 22 26 20 22 26 20 22 26 20 22 26 20 22 26 20 22 26 20 22 26 255 255 255 255 255 255 255 255 255 255 255 255 255 255 255 255 255 255 255 255 255 255 255 255 99 91 255 99 91 255 99 91 255 99 91 255 99 91 255 99 91 255 99 91 255 99 91 255 99 91 255 99 91 255 99 91 255 99 91 255 99 91 255 99 91 255 99 91 255 255 255 255 255 255 255 255 255 255 255 255 255 255 255 255 255 255 255 255 255 255 255 255 255 255 255 255 255 255 255 255 255 255 255 255 255 20 22 26 20 22 26 20 22 26 20 22 26 20 22 26 20 22 26 20 22 26 20 22 26 20 22 26 20 22 26 20 22 26 20 22 26 20 22 26 20 22 26
20 22 26 20 22 26 20 22 26 20 22 26 20 22 26 20 22 26 20 22 26 20 22 26 20 22 26 20 22 26 20 22 26 20 22 26 20 22 26 20 22 26 20 22 26 255 255 255 255 255 255 255 255 255 255 255 255 255 255 255 255 255 255 255 255 255 255 255 255 99 91 255 99 91 255 99 91 255 99 91 255 99 91 255 99 91 255 99 91 255 99 91 255 99 91 255 99 91 255 99 91 255 99 91 255 99 91 255 99 91 255 99 91 255 255 255 255 255 255 255 255 255 255 255 255 255 255 255 255 255 255 255 255 255 255 255 255 255 255 255 255 255 255 255 255 255 255 255 255 255 20 22 26 20 22 26 20 22 26 20 22 26 20 22 26 20 22 26 20 22 26 20 22 26 20 22 26 20 22 26 20 22 26 20 22 26 20 22 26 20 22 26
20 22 26 20 22 26 20 22 26 20 22 26 20 22 26 20 22 26 20 22 26 20 22 26 20 22 26 20 22 26 20 22 26 20 22 26 20 22 26 20 22 26 20 22 26 255 255 255 255 255 255 255 255 255 255 255 255 255 255 255 255 255 255 255 255 255 255 255 255 255 255 255 255 255 255 255 255 255 255 255 255 255 255 255 255 255 255 255 255 255 255 255 255 255 255 255 255 255 255 255 255 255 255 255 255 255 255 255 255 255 255 255 255 255 255 255 255 255 255 255 255 255 255 255 255 255 255 255 255 255 255 255 255 255 255 255 255 255 255 255 255 255 255 255 255 255 255 255 255 255 20 22 26 20 22 26 20 22 26 20 22 26 20 22 26 20 22 26 20 22 26 20 22 26 20 22 26 20 22 26 20 22 26 20 22 26 20 22 26 20 22 26
20 22 26 20 22 26 20 22 26 20 22 26 20 22 26 20 22 26 20 22 26 20 22 26 20 22 26 20 22 26 20 22 26 20 22 26 20 22 26 20 22 26 20 22 26 255 255 255 255 255 255 255 255 255 255 255 255 255 255 255 255 255 255 255 255 255 255 255 255 255 255 255 255 255 255 255 255 255 255 255 255 255 255 255 255 255 255 255 255 255 255 255 255 255 255 255 255 255 255 255 255 255 255 255 255 255 255 255 255 255 255 255 255 255 255 255 255 255 255 255 255 255 255 255 255 255 255 255 255 255 255 255 255 255 255 255 255 255 255 255 255 255 255 255 255 255 255 255 255 255 20 22 26 20 22 26 20 22 26 20 22 26 20 22 26 20 22 26 20 22 26 20 22 26 20 22 26 20 22 26 20 22 26 20 22 26 20 22 26 20 22 26
20 22 26 20 22 26 20 22 26 20 22 26 20 22 26 20 22 26 20 22 26 20 22 26 20 22 26 20 22 26 20 22 26 20 22 26 20 22 26 20 22 26 20 22 26 255 255 255 255 255 255 255 255 255 255 255 255 255 255 255 255 255 255 255 255 255 255 255 255 255 255 255 255 255 255 255 255 255 255 255 255 255 255 255 255 255 255 255 255 255 255 255 255 255 255 255 255 255 255 255 255 255 255 255 255 255 255 255 255 255 255 255 255 255 255 255 255 255 255 255 255 255 255 255 255 255 255 255 255 255 255 255 255 255 255 255 255 255 255 255 255 255 255 255 255 255 255 255 255 255 20 22 26 20 22 26 20 22 26 20 22 26 20 22 26 20 22 26 20 22 26 20 22 26 20 22 26 20 22 26 20 22 26 20 22 26 20 22 26 20 22 26
20 22 26 20 22 26 20 22 26 20 22 26 20 22 26 20 22 26 20 22 26 20 22 26 20 22 26 20 22 26 20 22 26 20 22 26 20 22 26 20 22 26 20 22 26 255 255 255 255 255 255 255 255 255 255 255 255 255 255 255 255 255 255 255 255 255 255 255 255 255 255 255 255 255 255 255 255 255 255 255 255 255 255 255 255 255 255 255 255 255 255 255 255 255 255 255 255 255 255 255 255 255 255 255 255 255 255 255 255 255 255 255 255 255 255 255 255 255 255 255 255 255 255 255 255 255 255 255 255 255 255 255 255 255 255 255 255 255 255 255 255 255 255 255 255 255 255 255 255 255 20 22 26 20 22 26 20 22 26 20 22 26 20 22 26 20 22 26 20 22 26 20 22 26 20 22 26 20 22 26 20 22 26 20 22 26 20 22 26 20 22 26
20 22 26 20 22 26 20 22 26 20 22 26 20 22 26 20 22 26 20 22 26 20 22 26 20 22 26 20 22 26 20 22 26 20 22 26 20 22 26 20 22 26 20 22 26 20 22 26 255 255 255 255 255 255 255 255 255 255 255 255 255 255 255 255 255 255 255 255 255 255 255 255 255 255 255 255 255 255 255 255 255 255 255 255 255 255 255 255 255 255 255 255 255 255 255 255 255 255 255 255 255 255 255 255 255 255 255 255 255 255 255 255 255 255 255 255 255 255 255 255 255 255 255 255 255 255 255 255 255 255 255 255 255 255 255 255 255 255 255 255 255 255 255 255 255 255 255 20 22 26 20 22 26 20 22 26 20 22 26 20 22 26 20 22 26 20 22 26 20 22 26 20 22 26 20 22 26 20 22 26 20 22 26 20 22 26 20 22 26 20 22 26
20 22 26 20 22 26 20 22 26 20 22 26 20 22 26 20 22 26 20 22 26 20 22 26 20 22 26 20 22 26 20 22 26 20 22 26 20 22 26 20 22 26 20 22 26 20 22 26 255 255 255 255 255 255 255 255 255 255 255 255 255 255 255 255 255 255 255 255 255 255 255 255 255 255 255 255 255 255 255 255 255 255 255 255 255 255 255 255 255 255 255 255 255 255 255 255 255 255 255 255 255 255 255 255 255 255 255 255 255 255 255 255 255 255 255 255 255 255 255 255 255 255 255 255 255 255 255 255 255 255 255 255 255 255 255 255 255 255 255 255 255 255 255 255 255 255 255 20 22 26 20 22 26 20 22 26 20 22 26 20 22 26 20 22 26 20 22 26 20 22 26 20 22 26 20 22 26 20 22 26 20 22 26 20 22 26 20 22 26 20 22 26
20 22 26 20 22 26 20 22 26 20 22 26 20 22 26 20 22 26 20 22 26 20 22 26 20 22 26 20 22 26 20 22 26 20 22 26 20 22 26 20 22 26 20 22 26 20 22 26 255 255 255 255 255 255 255 255 255 255 255 255 255 255 255 99 91 255 99 91 255 99 91 255 255 255 255 255 255 255 255 255 255 255 255 255 255 255 255 255 255 255 255 255 255 255 255 255 255 255 255 255 255 255 255 255 255 255 255 255 255 255 255 255 255 255 255 255 255 255 255 255 99 91 255 99 91 255 99 91 255 99 91 255 255 255 255 255 255 255 255 255 255 255 255 255 255 255 255 20 22 26 20 22 26 20 22 26 20 22 26 20 22 26 20 22 26 20 22 26 20 22 26 20 22 26 20 22 26 20 22 26 20 22 26 20 22 26 20 22 26 20 22 26
20 22 26 20 22 26 20 22 26 20 22 26 20 22 26 20 22 26 20 22 26 20 22 26 20 22 26 20 22 26 20 22 26 20 22 26 20 22 26 20 22 26 20 22 26 20 22 26 20 22 26 255 255 255 255 255 255 255 255 255 255 255 255 99 91 255 99 91 255 99 91 255 99 91 255 99 91 255 255 255 255 255 255 255 255 255 255 255 255 255 255 255 255 255 255 255 255 255 255 255 255 255 255 255 255 255 255 255 255 255 255 255 255 255 99 91 255 99 91 255 99 91 255 99 91 255 99 91 255 99 91 255 255 255 255 255 255 255 255 255 255 255 255 255 20 22 26 20 22 26 20 22 26 20 22 26 20 22 26 20 22 26 20 22 26 20 22 26 20 22 26 20 22 26 20 22 26 20 22 26 20 22 26 20 22 26 20 22 26 20 22 26
20 22 26 20 22 26 20 22 26 20 22 26 20 22 26 20 22 26 20 22 26 20 22 26 20 22 26 20 22 26 20 22 26 20 22 26 20 22 26 20 22 26 20 22 26 20 22 26 20 22 26 20 22 26 20 22 26 20 22 26 255 255 255 99 91 255 99 91 255 99 91 255 99 91 255 99 91 255 99 91 255 99 91 255 255 255 255 255 255 255 255 255 255 255 255 255 255 255 255 255 255 255 255 255 255 255 255 255 99 91 255 99 91 255 99 91 255 99 91 255 99 91 255 99 91 255 99 91 255 99 91 255 255 255 255 20 22 26 20 22 26 20 22 26 20 22 26 20 22 26 20 22 26 20 22 26 20 22 26 20 22 26 20 22 26 20 22 26 20 22 26 20 22 26 20 22 26 20 22 26 20 22 26 20 22 26 20 22 26 20 22 26
20 22 26 20 22 26 20 22 26 20 22 26 20 22 26 20 22 26 20 22 26 20 22 26 20 22 26 20 22 26 20 22 26 20 22 26 20 22 26 20 22 26 20 22 26 20 22 26 20 22 26 20 22 26 20 22 26 20 22 26 20 22 26 20 22 26 99 91 255 99 91 255 99 91 255 99 91 255 99 91 255 99 91 255 99 91 255 99 91 255 20 22 26 20 22 26 20 22 26 20 22 26 99 91 255 99 91 255 99 91 255 99 91 255 99 91 255 99 91 255 99 91 255 99 91 255 20 22 26 20 22 26 20 22 26 20 22 26 20 22 26 20 22 26 20 22 26 20 22 26 20 22 26 20 22 26 20 22 26 20 22 26 20 22 26 20 22 26 20 22 26 20 22 26 20 22 26 20 22 26 20 22 26 20 22 26 20 22 26 20 22 26
20 22 26 20 22 26 20 22 26 20 22 26 20 22 26 20 22 26 20 22 26 20 22 26 20 22 26 20 22 26 20 22 26 20 22 26 20 22 26 20 22 26 20 22 26 20 22 26 20 22 26 20 22 26 20 22 26 20 22 26 20 22 26 20 22 26 20 22 26 20 22 26 99 91 255 99 91 255 99 91 255 99 91 255 99 91 255 99 91 255 99 91 255 99 91 255 99 91 255 99 91 255 99 91 255 99 91 255 99 91 255 99 91 255 99 91 255 99 91 255 20 22 26 20 22 26 20 22 26 20 22 26 20 22 26 20 22 26 20 22 26 20 22 26 20 22 26 20 22 26 20 22 26 20 22 26 20 22 26 20 22 26 20 22 26 20 22 26 20 22 26 20 22 26 20 22 26 20 22 26 20 22 26 20 22 26 20 22 26 20 22 26
20 22 26 20 22 26 20 22 26 20 22 26 20 22 26 20 22 26 20 22 26 20 22 26 20 22 26 20 22 26 20 22 26 20 22 26 20 22 26 20 22 26 20 22 26 20 22 26 20 22 26 20 22 26 20 22 26 20 22 26 20 22 26 20 22 26 20 22 26 20 22 26 20 22 26 20 22 26 99 91 255 99 91 255 99 91 255 99 91 255 99 91 255 99 91 255 99 91 255 99 91 255 99 91 255 99 91 255 99 91 255 99 91 255 20 22 26 20 22 26 20 22 26 20 22 26 20 22 26 20 22 26 20 22 26 20 22 26 20 22 26 20 22 26 20 22 26 20 22 26 20 22 26 20 22 26 20 22 26 20 22 26 20 22 26 20 22 26 20 22 26 20 22 26 20 22 26 20 22 26 20 22 26 20 22 26 20 22 26 20 22 26
20 22 26 20 22 26 20 22 26 20 22 26 20 22 26 20 22 26 20 22 26 20 22 26 20 22 26 20 22 26 20 22 26 20 22 26 20 22 26 20 22 26 20 22 26 20 22 26 20 22 26 20 22 26 20 22 26 20 22 26 20 22 26 20 22 26 20 22 26 20 22 26 20 22 26 20 22 26 20 22 26 20 22 26 99 91 255 99 91 255 99 91 255 99 91 255 99 91 255 99 91 255 99 91 255 99 91 255 20 22 26 20 22 26 20 22 26 20 22 26 20 22 26 20 22 26 20 22 26 20 22 26 20 22 26 20 22 26 20 22 26 20 22 26 20 22 26 20 22 26 20 22 26 20 22 26 20 22 26 20 22 26 20 22 26 20 22 26 20 22 26 20 22 26 20 22 26 20 22 26 20 22 26 20 22 26 20 22 26 20 22 26
20 22 26 20 22 26 20 22 26 20 22 26 20 22 26 20 22 26 20 22 26 20 22 26 20 22 26 20 22 26 20 22 26 20 22 26 20 22 26 20 22 26 20 22 26 20 22 26 20 22 26 20 22 26 20 22 26 20 22 26 20 22 26 20 22 26 20 22 26 20 22 26 20 22 26 20 22 26 20 22 26 20 22 26 20 22 26 20 22 26 99 91 255 99 91 255 99 91 255 99 91 255 20 22 26 20 22 26 20 22 26 20 22 26 20 22 26 20 22 26 20 22 26 20 22 26 20 22 26 20 22 26 20 22 26 20 22 26 20 22 26 20 22 26 20 22 26 20 22 26 20 22 26 20 22 26 20 22 26 20 22 26 20 22 26 20 22 26 20 22 26 20 22 26 20 22 26 20 22 26 20 22 26 20 22 26 20 22 26 20 22 26
20 22 26 20 22 26 20 22 26 20 22 26 20 22 26 20 22 26 20 22 26 20 22 26 20 22 26 20 22 26 20 22 26 20 22 26 20 22 26 20 22 26 20 22 26 20 22 26 20 22 26 20 22 26 20 22 26 20 22 26 20 22 26 20 22 26 20 22 26 20 22 26 20 22 26 20 22 26 20 22 26 20 22 26 20 22 26 20 22 26 20 22 26 20 22 26 20 22 26 20 22 26 20 22 26 20 22 26 20 22 26 20 22 26 20 22 26 20 22 26 20 22 26 20 22 26 20 22 26 20 22 26 20 22 26 20 22 26 20 22 26 20 22 26 20 22 26 20 22 26 20 22 26 20 22 26 20 22 26 20 22 26 20 22 26 20 22 26 20 22 26 20 22 26 20 22 26 20 22 26 20 22 26 20 22 26 20 22 26 20 22 26
20 22 26 20 22 26 20 22 26 20 22 26 20 22 26 20 22 26 20 22 26 20 22 26 20 22 26 20 22 26 20 22 26 20 22 26 20 22 26 20 22 26 20 22 26 20 22 26 20 22 26 20 22 26 20 22 26 20 22 26 20 22 26 20 22 26 20 22 26 20 22 26 20 22 26 20 22 26 20 22 26 20 22 26 20 22 26 20 22 26 20 22 26 20 22 26 20 22 26 20 22 26 20 22 26 20 22 26 20 22 26 20 22 26 20 22 26 20 22 26 20 22 26 20 22 26 20 22 26 20 22 26 20 22 26 20 22 26 20 22 26 20 22 26 20 22 26 20 22 26 20 22 26 20 22 26 20 22 26 20 22 26 20 22 26 20 22 26 20 22 26 20 22 26 20 22 26 20 22 26 20 22 26 20 22 26 20 22 26 20 22 26
20 22 26 20 22 26 20 22 26 20 22 26 20 22 26 20 22 26 20 22 26 20 22 26 20 22 26 20 22 26 20 22 26 20 22 26 20 22 26 20 22 26 20 22 26 20 22 26 20 22 26 20 22 26 20 22 26 20 22 26 20 22 26 20 22 26 20 22 26 20 22 26 20 22 26 20 22 26 20 22 26 20 22 26 20 22 26 20 22 26 20 22 26 20 22 26 20 22 26 20 22 26 20 22 26 20 22 26 20 22 26 20 22 26 20 22 26 20 22 26 20 22 26 20 22 26 20 22 26 20 22 26 20 22 26 20 22 26 20 22 26 20 22 26 20 22 26 20 22 26 20 22 26 20 22 26 20 22 26 20 22 26 20 22 26 20 22 26 20 22 26 20 22 26 20 22 26 20 22 26 20 22 26 20 22 26 20 22 26 20 22 26
20 22 26 20 22 26 20 22 26 20 22 26 20 22 26 20 22 26 20 22 26 20 22 26 20 22 26 20 22 26 20 22 26 20 22 26 20 22 26 20 22 26 20 22 26 20 22 26 20 22 26 20 22 26 20 22 26 20 22 26 20 22 26 20 22 26 20 22 26 20 22 26 20 22 26 20 22 26 20 22 26 20 22 26 20 22 26 20 22 26 20 22 26 20 22 26 20 22 26 20 22 26 20 22 26 20 22 26 20 22 26 20 22 26 20 22 26 20 22 26 20 22 26 20 22 26 20 22 26 20 22 26 20 22 26 20 22 26 20 22 26 20 22 26 20 22 26 20 22 26 20 22 26 20 22 26 20 22 26 20 22 26 20 22 26 20 22 26 20 22 26 20 22 26 20 22 26 20 22 26 20 22 26 20 22 26 20 22 26 20 22 26
20 22 26 20 22 26 20 22 26 20 22 26 20 22 26 20 22 26 20 22 26 20 22 26 20 22 26 20 22 26 20 22 26 20 22 26 20 22 26 20 22 26 20 22 26 20 22 26 20 22 26 20 22 26 20 22 26 20 22 26 20 22 26 20 22 26 20 22 26 20 22 26 20 22 26 20 22 26 20 22 26 20 22 26 20 22 26 20 22 26 20 22 26 20 22 26 20 22 26 20 22 26 20 22 26 20 22 26 20 22 26 20 22 26 20 22 26 20 22 26 20 22 26 20 22 26 20 22 26 20 22 26 20 22 26 20 22 26 20 22 26 20 22 26 20 22 26 20 22 26 20 22 26 20 22 26 20 22 26 20 22 26 20 22 26 20 22 26 20 22 26 20 22 26 20 22 26 20 22 26 20 22 26 20 22 26 20 22 26 20 22 26
20 22 26 20 22 26 20 22 26 20 22 26 20 22 26 20 22 26 20 22 26 20 22 26 20 22 26 20 22 26 20 22 26 20 22 26 20 22 26 20 22 26 20 22 26 20 22 26 20 22 26 20 22 26 20 22 26 20 22 26 20 22 26 20 22 26 20 22 26 20 22 26 20 22 26 20 22 26 20 22 26 20 22 26 20 22 26 20 22 26 20 22 26 20 22 26 20 22 26 20 22 26 20 22 26 20 22 26 20 22 26 20 22 26 20 22 26 20 22 26 20 22 26 20 22 26 20 22 26 20 22 26 20 22 26 20 22 26 20 22 26 20 22 26 20 22 26 20 22 26 20 22 26 20 22 26 20 22 26 20 22 26 20 22 26 20 22 26 20 22 26 20 22 26 20 22 26 20 22 26 20 22 26 20 22 26 20 22 26 20 22 26
20 22 26 20 22 26 20 22 26 20 22 26 20 22 26 20 22 26 20 22 26 20 22 26 20 22 26 20 22 26 20 22 26 20 22 26 20 22 26 20 22 26 20 22 26 20 22 26 20 22 26 20 22 26 20 22 26 20 22 26 20 22 26 20 22 26 20 22 26 20 22 26 20 22 26 20 22 26 20 22 26 20 22 26 20 22 26 20 22 26 20 22 26 20 22 26 20 22 26 20 22 26 20 22 26 20 22 26 20 22 26 20 22 26 20 22 26 20 22 26 20 22 26 20 22 26 20 22 26 20 22 26 20 22 26 20 22 26 20 22 26 20 22 26 20 22 26 20 22 26 20 22 26 20 22 26 20 22 26 20 22 26 20 22 26 20 22 26 20 22 26 20 22 26 20 22 26 20 22 26 20 22 26 20 22 26 20 22 26 20 22 26
20 22 26 20 22 26 20 22 26 20 22 26 20 22 26 20 22 26 20 22 26 20 22 26 20 22 26 20 22 26 20 22 26 20 22 26 20 22 26 20 22 26 20 22 26 20 22 26 20 22 26 20 22 26 20 22 26 20 22 26 20 22 26 20 22 26 20 22 26 20 22 26 20 22 26 20 22 26 20 22 26 20 22 26 20 22 26 20 22 26 20 22 26 20 22 26 20 22 26 20 22 26 20 22 26 20 22 26 20 22 26 20 22 26 20 22 26 20 22 26 20 22 26 20 22 26 20 22 26 20 22 26 20 22 26 20 22 26 20 22 26 20 22 26 20 22 26 20 22 26 20 22 26 20 22 26 20 22 26 20 22 26 20 22 26 20 22 26 20 22 26 20 22 26 20 22 26 20 22 26 20 22 26 20 22 26 20 22 26 20 22 26
20 22 26 20 22 26 20 22 26 20 22 26 20 22 26 20 22 26 20 22 26 20 22 26 20 22 26 20 22 26 20 22 26 20 22 26 20 22 26 20 22 26 20 22 26 20 22 26 20 22 26 20 22 26 20 22 26 20 22 26 20 22 26 20 22 26 20 22 26 20 22 26 20 22 26 20 22 26 20 22 26 20 22 26 20 22 26 20 22 26 20 22 26 20 22 26 20 22 26 20 22 26 20 22 26 20 22 26 20 22 26 20 22 26 20 22 26 20 22 26 20 22 26 20 22 26 20 22 26 20 22 26 20 22 26 20 22 26 20 22 26 20 22 26 20 22 26 20 22 26 20 22 26 20 22 26 20 22 26 20 22 26 20 22 26 20 22 26 20 22 26 20 22 26 20 22 26 20 22 26 20 22 26 20 22 26 20 22 26 20 22 26
20 22 26 20 22 26 20 22 26 20 22 26 20 22 26 20 22 26 20 22 26 20 22 26 20 22 26 20 22 26 20 22 26 20 22 26 20 22 26 20 22 26 20 22 26 20 22 26 20 22 26 20 22 26 20 22 26 20 22 26 20 22 26 20 22 26 20 22 26 20 22 26 20 22 26 20 22 26 20 22 26 20 22 26 20 22 26 20 22 26 20 22 26 20 22 26 20 22 26 20 22 26 20 22 26 20 22 26 20 22 26 20 22 26 20 22 26 20 22 26 20 22 26 20 22 26 20 22 26 20 22 26 20 22 26 20 22 26 20 22 26 20 22 26 20 22 26 20 22 26 20 22 26 20 22 26 20 22 26 20 22 26 20 22 26 20 22 26 20 22 26 20 22 26 20 22 26 20 22 26 20 22 26 20 22 26 20 22 26 20 22 26
20 22 26 20 22 26 20 22 26 20 22 26 20 22 26 20 22 26 20 22 26 20 22 26 20 22 26 20 22 26 20 22 26 20 22 26 20 22 26 20 22 26 20 22 26 20 22 26 20 22 26 20 22 26 20 22 26 20 22 26 20 22 26 20 22 26 20 22 26 20 22 26 20 22 26 20 22 26 20 22 26 20 22 26 20 22 26 20 22 26 20 22 26 20 22 26 20 22 26 20 22 26 20 22 26 20 22 26 20 22 26 20 22 26 20 22 26 20 22 26 20 22 26 20 22 26 20 22 26 20 22 26 20 22 26 20 22 26 20 22 26 20 22 26 20 22 26 20 22 26 20 22 26 20 22 26 20 22 26 20 22 26 20 22 26 20 22 26 20 22 26 20 22 26 20 22 26 20 22 26 20 22 26 20 22 26 20 22 26 20 22 26
20 22 26 20 22 26 20 22 26 20 22 26 20 22 26 20 22 26 20 22 26 20 22 26 20 22 26 20 22 26 20 22 26 20 22 26 20 22 26 20 22 26 20 22 26 20 22 26 20 22 26 20 22 26 20 22 26 20 22 26 20 22 26 20 22 26 20 22 26 20 22 26 20 22 26 20 22 26 20 22 26 20 22 26 20 22 26 20 22 26 20 22 26 20 22 26 20 22 26 20 22 26 20 22 26 20 22 26 20 22 26 20 22 26 20 22 26 20 22 26 20 22 26 20 22 26 20 22 26 20 22 26 20 22 26 20 22 26 20 22 26 20 22 26 20 22 26 20 22 26 20 22 26 20 22 26 20 22 26 20 22 26 20 22 26 20 22 26 20 22 26 20 22 26 20 22 26 20 22 26 20 22 26 20 22 26 20 22 26 20 22 26
20 22 26 20 22 26 20 22 26 20 22 26 20 22 26 20 22 26 20 22 26 20 22 26 20 22 26 20 22 26 20 22 26 20 22 26 20 22 26 20 22 26 20 22 26 20 22 26 20 22 26 20 22 26 20 22 26 20 22 26 20 22 26 20 22 26 20 22 26 20 22 26 20 22 26 20 22 26 20 22 26 20 22 26 20 22 26 20 22 26 20 22 26 20 22 26 20 22 26 20 22 26 20 22 26 20 22 26 20 22 26 20 22 26 20 22 26 20 22 26 20 22 26 20 22 26 20 22 26 20 22 26 20 22 26 20 22 26 20 22 26 20 22 26 20 22 26 20 22 26 20 22 26 20 22 26 20 22 26 20 22 26 20 22 26 20 22 26 20 22 26 20 22 26 20 22 26 20 22 26 20 22 26 20 22 26 20 22 26 20 22 26
